X:6
T:Green bushes - burstow
C:Taken down from H. Burstow, Sussex by L.E.B. Jan. 1894
%%VWML:SBG-1-1-215-0
F:http://www.vwml.org/record/SBG/1/1/215
Z:Original Sibleius Transcription by Martin and Shan Graebe
M:3/4
L:1/8
K:F
C2 | F2 F2 GF | E2 F2 G2 | A2 c2 c2 | G4 G2 | A2 G2 A2 |(GE) C4 | E2 F2>=B,2 | C4 c2 |
 d2 c2 B2 |c2 G2 (GA) | B2 AG FE | C4 C2 | F2 F2 GF |E2 F2 AB | c2 cB G2 | F4 ||
T:Green bushes - kidson
T:Tune as sung at Stockport 1838, given in Kidson’s Trad. Tunes, p. 47.
M:3/4
L:1/8
K:Fm
F2| F2  G2 F2 | E2 F2 AB | c2 c2 G2 | (E2 F2)  G2 | F3 A (GF) |E2 F2 B2 | c2  c2 =B2 | c4 (AB) |
c2  f2 f2 | c2 =d2  e2 | GA BA GF | E4  FF | 2< F2 A GF |E2 F2  AB | c2  c2 {BA} G2 | F4 ||
T:Green bushes - london mag
T:“Low down in the Broom” a new song, in the “London Magazine 1760. P. 486
M:4/4
L:1/8
K:D
d | AD EF A>d AF | E>D EF e3 {de}e | D>D EF d>c BA | B>A Bc2< d2||A | 
d{de}f ed B{Bc}d AF |A2 g>f e2 a>g | {fg}  a2 fd B{AB}d {B} AF | F2 Bc !fermata!d4 ||
D2 EF d>d BA | (B>A) Bd e2  d/e/f | D2 EF Ad  AG | A2 Bc2< d2 ||


